X: 27251
T: Miss Shepherd
R: reel
M: 4/4
K: Adorian
|:A,B,CD E2DC|B,GFG DB,G,B,|A,B,CD EGAc|BAGB BcA2:|
K:D
a2ed cAAF|GED=C B,G,G,2|^gaed cAAF|GABd cAA2|
a2ed cAAF|GED=C B,G,G,2A,B,=CD EGA=c|BAGB B=cA2||

